X:79
T: Der heimkehrende Braeutigam
N: Q1102G
O: Osteuropa, Tschechoslowakei, Sudetenland, Schoenhengstgau
N: Melodievergleich zu Q0102F, anderes Lied.
R: Kinder - Lied
M: 4/4
L: 1/8
K: G
 | d3cB3c | d3ed2z2 |
d3cB3c | d3ed2z2 |
d3cB3c | d3cB3
c | d3cB3c | d3cB2z2

@@@ Tune index: 1372
